images/ice-farm.svg

<svg width="49" height="48" viewBox="0 0 49 48" fill="none" xmlns="http://www.w3.org/2000/svg">
<circle cx="24.5" cy="24" r="23" stroke="#2D3440" stroke-width="2"/>
<g clip-path="url(#clip0_63_4750)">
<path d="M35.249 18.2868C35.974 16.8027 36.3877 15.1943 36.4663 13.5546C36.5449 11.9149 36.2868 10.2764 35.7069 8.73373C35.6454 8.54577 35.5283 8.3794 35.3701 8.25524C35.2118 8.13109 35.0193 8.05462 34.8165 8.03532C34.6138 8.01603 34.4096 8.05475 34.2293 8.1467C34.0491 8.23864 33.9007 8.37976 33.8026 8.55253C32.4811 10.8376 29.6404 14.5219 27.5593 14.693H27.4656C26.5088 14.511 25.5374 14.41 24.5624 14.3911C23.584 14.4098 22.6092 14.5108 21.6489 14.693H21.576C19.4949 14.532 16.6125 10.8477 15.2806 8.5626C15.1877 8.37976 15.0397 8.2285 14.856 8.12879C14.6724 8.02909 14.4618 7.98564 14.2521 8.00418C14.0423 8.02272 13.8434 8.10239 13.6814 8.23265C13.5195 8.36291 13.4023 8.53763 13.3452 8.73373C12.7552 10.2709 12.4872 11.9063 12.5569 13.5447C12.6266 15.183 13.0325 16.7916 13.751 18.2767C11.9404 18.4981 9.64077 19.0619 8.80832 20.4812C8.60637 20.8176 8.5 21.1996 8.5 21.5885C8.5 21.9775 8.60637 22.3595 8.80832 22.6958C9.04668 23.1071 9.40147 23.444 9.83096 23.6669C10.2605 23.8898 10.7468 23.9895 11.2328 23.9541C12.095 23.9371 12.9474 23.7735 13.751 23.471C13.7439 24.0141 13.7891 24.5567 13.8863 25.0916C14.3507 26.8799 14.9596 28.6301 15.7072 30.3262C15.905 30.7993 16.1235 31.3328 16.2379 31.6549C15.8961 32.4629 15.628 33.2982 15.4367 34.1514C15.3873 34.7542 15.4651 35.3605 15.6655 35.9333C15.8658 36.5061 16.1845 37.0335 16.6021 37.4834C18.1109 39.1544 20.7644 40 24.5312 40C28.2981 40 30.9619 39.1544 32.4603 37.4834C32.88 37.0348 33.2 36.5076 33.4005 35.9344C33.6009 35.3613 33.6776 34.7544 33.6257 34.1514C33.4379 33.2985 33.1733 32.4632 32.8349 31.6549C32.9494 31.3328 33.1679 30.8094 33.3552 30.3262C34.1107 28.633 34.7198 26.8822 35.1762 25.0916C35.2812 24.5576 35.33 24.0146 35.3218 23.471C36.0992 23.7646 36.9226 23.928 37.7568 23.9541C38.2441 23.989 38.7317 23.8892 39.1628 23.6664C39.5938 23.4437 39.9506 23.1071 40.1917 22.6958C40.3936 22.3595 40.5 21.9775 40.5 21.5885C40.5 21.1996 40.3936 20.8176 40.1917 20.4812C39.3696 19.1122 37.07 18.5082 35.249 18.2868ZM34.2605 11.6027C34.6358 13.7077 34.2693 15.8737 33.2199 17.7532C32.9591 17.4469 32.6812 17.1545 32.3875 16.8775C31.7994 16.3545 31.1284 15.9262 30.4 15.6091C31.9008 14.4828 33.2043 13.13 34.2605 11.6027ZM14.7916 11.6027C15.8372 13.1406 17.138 14.5011 18.6416 15.6292C17.9145 15.9376 17.2489 16.3669 16.675 16.8976C16.377 17.1738 16.0956 17.4662 15.8321 17.7734C14.7796 15.8876 14.4131 13.7142 14.7916 11.6027ZM10.6917 21.7295C10.5981 21.5684 10.6293 21.5181 10.6917 21.4778C10.9311 21.0852 12.1381 20.4712 14.4482 20.2396C14.3337 20.5316 14.2296 20.8235 14.136 21.1255C12.7833 21.7999 10.9727 22.2227 10.6917 21.7295ZM33.1263 24.7494C32.6904 26.4019 32.127 28.0204 31.4405 29.5913C31.1688 30.2068 30.9291 30.835 30.7226 31.4738L30.6601 31.7858L30.7746 32.0677C31.1037 32.8353 31.3716 33.6261 31.5758 34.4333C31.5868 34.7508 31.5327 35.0673 31.4166 35.3644C31.3006 35.6616 31.1248 35.9336 30.8995 36.1647C30.1503 37.0002 28.4437 37.9867 24.5416 37.9867C20.6395 37.9867 18.933 36.9801 18.1838 36.1647C17.7345 35.6944 17.492 35.0735 17.5074 34.4333C17.7159 33.6261 17.9872 32.8353 18.3191 32.0677L18.4335 31.7858L18.3607 31.4738C18.1653 30.8294 17.929 30.1974 17.6531 29.5813C16.9547 28.0024 16.3841 26.3735 15.9466 24.7091C15.7481 23.5489 15.8453 22.3593 16.2298 21.2436C16.6142 20.128 17.2742 19.1199 18.1526 18.3069C19.7238 16.7768 23.2825 16.4345 24.5208 16.4245C25.7591 16.4144 29.245 16.7667 30.9099 18.327C31.7936 19.1323 32.4582 20.1361 32.8449 21.2494C33.2315 22.3626 33.3281 23.551 33.1263 24.7091V24.7494ZM38.3291 21.7295C38.0585 22.2127 36.2479 21.7999 34.9576 21.1355C34.8744 20.8336 34.7703 20.5416 34.6559 20.2396C36.9451 20.4712 38.1418 21.0852 38.3707 21.4778C38.4227 21.5181 38.4435 21.5684 38.3499 21.7295H38.3291Z" fill="#2D3440"/>
</g>
<defs>
<clipPath id="clip0_63_4750">
<rect width="32" height="32" fill="white" transform="translate(8.5 8)"/>
</clipPath>
</defs>
</svg>

<svg xmlns="http://www.w3.org/2000/svg" width="49" height="48" fill="none"><circle cx="24.5" cy="24" r="23" stroke="#2D3440" stroke-width="2"/><g clip-path="url(#a)"><path fill="#2D3440" d="M35.25 18.29a12.1 12.1 0 0 0 .46-9.56 1 1 0 0 0-.34-.47 1.06 1.06 0 0 0-1.57.3c-1.32 2.28-4.16 5.96-6.24 6.13h-.1c-.95-.18-1.92-.28-2.9-.3-.98.02-1.95.12-2.91.3h-.07c-2.09-.16-4.97-3.84-6.3-6.13-.1-.18-.24-.33-.42-.43a1.07 1.07 0 0 0-1.18.1 1 1 0 0 0-.33.5 12 12 0 0 0 .4 9.55c-1.81.22-4.1.78-4.94 2.2a2.15 2.15 0 0 0 0 2.22c.24.4.6.74 1.02.97.43.22.92.32 1.4.28a7.57 7.57 0 0 0 2.52-.48c0 .54.04 1.09.14 1.62a34.44 34.44 0 0 0 1.82 5.24c.2.47.41 1 .53 1.32-.34.81-.61 1.65-.8 2.5a4.32 4.32 0 0 0 1.16 3.33c1.51 1.67 4.16 2.52 7.93 2.52 3.77 0 6.43-.85 7.93-2.52a4.39 4.39 0 0 0 1.17-3.33c-.2-.85-.46-1.69-.8-2.5l.53-1.32c.75-1.7 1.36-3.45 1.82-5.24.1-.53.15-1.08.14-1.62.78.3 1.6.46 2.44.48a2.54 2.54 0 0 0 2.43-1.26 2.15 2.15 0 0 0 0-2.2c-.82-1.38-3.12-1.98-4.94-2.2Zm-.99-6.69c.38 2.1 0 4.27-1.04 6.15a7.49 7.49 0 0 0-2.82-2.14c1.5-1.13 2.8-2.48 3.86-4Zm-19.47 0a16.96 16.96 0 0 0 3.85 4.03c-.73.3-1.4.74-1.96 1.27-.3.27-.58.57-.85.87a9.28 9.28 0 0 1-1.04-6.17Zm-4.1 10.13c-.1-.16-.06-.21 0-.25.24-.4 1.45-1 3.76-1.24-.12.3-.22.58-.31.89-1.36.67-3.17 1.1-3.45.6Zm22.44 3.02a33.3 33.3 0 0 1-1.69 4.84c-.27.62-.51 1.25-.72 1.88l-.06.32.11.28c.33.77.6 1.56.8 2.36a2.33 2.33 0 0 1-.67 1.73C30.15 37 28.44 38 24.54 38c-3.9 0-5.6-1.01-6.36-1.83-.45-.47-.69-1.09-.67-1.73.2-.8.48-1.6.8-2.36l.12-.28-.07-.32c-.2-.64-.43-1.27-.7-1.89-.7-1.58-1.28-3.2-1.71-4.87a7 7 0 0 1 2.2-6.4c1.57-1.53 5.13-1.88 6.37-1.89 1.24 0 4.73.35 6.39 1.9.88.81 1.55 1.82 1.93 2.93.4 1.11.49 2.3.29 3.46v.04Zm5.2-3.02c-.27.48-2.08.07-3.37-.6-.09-.3-.19-.59-.3-.89 2.29.23 3.48.85 3.71 1.24.05.04.07.09-.02.25h-.02Z"/></g><defs><clipPath id="a"><path fill="#fff" d="M8.5 8h32v32h-32z"/></clipPath></defs></svg>
